X: 25
T:Marquis of Lorne
R:Hornpipe
C:Kevin Briggs
S:Nottingham Music Database
M:4/4
L:1/8
K:G
ba|gfge B2ed|cBcA E2AG|FGAB cedc| Bcde d2ba|
gfge B2ed|cBcA E2AG|FGAB cdef|g2b2 g2:|
Bc|dBgB dBgB|(3dcB gB d2cB|cafd cafd|cafd c2Bc|
(3dcB gB (3dcB gB|(3dcB gB d2cB|cafd ^cdef|g2b2 g2:|
